X: 4
T:An Cailin Dubh
M:4/4
S:Paul O'Shaughnessy, Dublin (fiddle)
R:Reel
N:As played
D:Television broadcast
Z:Bernie Stocks
K:D
c2AB cd(3.e.f.e | d2gd BGGd | (3.c.c.B AB cdeg | faec (3.A.A.A AB |
{d}cBAB cdec | d2gd BGBd | (3.c.e.c AB cdeg | faec (3.A.A.A AB ||
cdef {agf}g2eg | fdfa (3.g.b.g ed | cdef gbae | faec (3.A.A.A AB |
{d}cdef gbag | fd{e}dc defg | (3.a.g.f {a}ge faec | dgec A4 ||
<end>
<start>
